src/icons/svgs/16/chevron-up.svg

<svg width="16" height="16" viewBox="0 0 16 16" fill="none" xmlns="http://www.w3.org/2000/svg">
<path d="M14.0996 10.6993C14.0996 10.469 14.0142 10.2386 13.8433 10.0631L8.59326 4.66309C8.25147 4.31152 7.69775 4.31152 7.35596 4.66309L2.10596 10.0631C1.76416 10.4146 1.76416 10.9842 2.10596 11.3357C2.44775 11.6873 3.00146 11.6873 3.34326 11.3357L7.97461 6.57193L12.6066 11.3363C12.9484 11.6879 13.5021 11.6879 13.8439 11.3363C14.0148 11.1605 14.0996 10.9299 14.0996 10.6993Z" fill="black"/>
</svg>

<svg width="16" height="16" viewBox="0 0 16 16" xmlns="http://www.w3.org/2000/svg">
    <path d="M14.1 10.7a.91.91 0 0 0-.257-.637l-5.25-5.4a.858.858 0 0 0-1.237 0l-5.25 5.4a.918.918 0 0 0 0 1.273.858.858 0 0 0 1.237 0l4.632-4.764 4.632 4.764a.858.858 0 0 0 1.237 0 .91.91 0 0 0 .256-.637z"/>
</svg>
